!!!!SEGMENT: pl-kk--kk-i-7--014_anonim--tollite-portas.krn
!!!cenid: 16xx:804
!!!COM: Anonim
!!!COM-rism: pe30004985
!!!CDT:
!!!CNT:
!!!OTL: Tollite portas
!!!PDT:
!!!AGN: Sacred
!!!SMS-siglum: PL-Kk
!!!SMS-shelfmark: Kk.I.7
!!!NIFC-rismID: 300258091
!!!URL-scan: http://repozytorium.nifc.pl/skany/pl-kk-nut--i-7
!!!ONB-nifc: UWAGA: C (skan 0010-0011, s.15-16), A (0097-0098, s.15-17), T(0174, s.12-13), B(0263, s.16-17). Następny utwór: Alleluia prophetae
!!!SMS-variant:
!!!SMS-altvar:
**kern	**text	**kern	**text	**kern	**text	**kern	**text
*part4	*part4	*part3	*part3	*part2	*part2	*part1	*part1
*staff4	*staff4	*staff3	*staff3	*staff2	*staff2	*staff1	*staff1
*I"[BASSVS.]	*	*I"[TENOR.]	*	*I"[ALTVS.]	*	*I"[CANTVS.]	*
*I'B	*	*I'T	*	*I'A	*	*I'C	*
*clefF4	*	*clefC4	*	*clefC4	*	*clefC3	*
*k[b-]	*	*k[b-]	*	*k[b-]	*	*k[b-]	*
*M2/1	*	*M2/1	*	*M2/1	*	*M2/1	*
*met(c|)	*	*met(c|)	*	*met(c|)	*	*met(c|)	*
=1-	=1-	=1-	=1-	=1-	=1-	=1-	=1-
*all\right	*	*all\right	*	*all\right	*	*all\right	*
*	*	*lig	*	*	*	*	*
!LO:TX:a:t=GRaduale	!	!LO:TX:a:B:t=Graduale	!	!LO:TX:a:B:t=Graduale.	!	!LO:TX:a:t=Grad.	!
1C	Tol-	1C	To-	1G	Tol-	0c	Tol-
2FF/	-li-	1F	.	2A/	-li-	.	.
2FF/	-te	.	.	2A/	-te	.	.
*	*	*Xlig	*	*	*	*	*
=2-	=2-	=2-	=2-	=2-	=2-	=2-	=2-
*	*	*	*	*2\right	*	*	*
1BB-	po-	1D	.	2.B-\	por-	2F/	-li-
.	.	.	.	.	.	2F/	-te
.	.	.	.	4c\	.	.	.
2GG/	-stas	1D	-li-	2d\	.	1B-	por-
2.GG/	.	.	.	2G/	.	.	.
=3-	=3-	=3-	=3-	=3-	=3-	=3-	=3-
.	.	1D	-te	1B-	-tas	2G/	-tas
4AA/	.	.	.	.	.	.	.
4BB-/	.	.	.	.	.	1d	.
4C/	.	.	.	.	.	.	.
*	*	*lig	*	*	*ij	*	*
1D	.	1F	por-	2A/	Tol-	.	.
*	*	*	*	*	*	*2\right	*
.	.	.	.	2A/	-li-	2d\	.
=4-	=4-	=4-	=4-	=4-	=4-	=4-	=4-
2BB-/	.	1D	.	2.B-\	-te	2d\	.
2BB-/	.	.	.	.	.	2f\	.
.	.	.	.	4A/	.	.	.
*	*	*Xlig	*	*	*	*	*
*	*	*lig	*	*	*	*	*
4C/	.	1E	.	2G/	.	4e\	.
4BB-/	.	.	.	.	.	4d\	.
4AA/	.	.	.	1.A\	por-	4c/	.
4GG/	.	.	.	.	.	4B-/	.
=5-	=5-	=5-	=5-	=5-	=5-	=5-	=5-
1FF	.	1F	.	.	.	4A/	.
.	.	.	.	.	.	4G/	.
.	.	.	.	.	.	1c	.
*	*	*Xlig	*	*	*	*	*
*	*	*lig	*	*	*	*	*
1GG	.	1D	-tas	1.G	-tas	.	.
*	*	*	*	*	*Xij	*	*
.	.	.	.	.	.	2B-/	.
=6-	=6-	=6-	=6-	=6-	=6-	=6-	=6-
2r	.	1C	.	.	.	2c/	.
2C/	Prin-	.	.	2c\	prin-	2e\	.
*	*	*Xlig	*	*	*	*	*
*	*	*lig	*	*	*	*	*
2D/	-ci-	1F	Prin-	1A	-ci-	1d	.
1F\	-pes	.	.	.	.	.	.
=7-	=7-	=7-	=7-	=7-	=7-	=7-	=7-
.	.	1C	.	1G	-pes	2.c/	prin-
*2\right	*	*	*	*	*	*	*
2E\	.	.	.	.	.	.	.
.	.	.	.	.	.	4B-/	.
*	*	*Xlig	*	*	*	*	*
*	*	*lig	*	*	*	*	*
1F	.	1D	.	2F/	.	2.A/	-ci-
.	.	.	.	1A\	.	.	.
.	.	.	.	.	.	4G/	.
=8-	=8-	=8-	=8-	=8-	=8-	=8-	=8-
1D	.	1F	.	.	.	2F/	-pes
.	.	.	.	2B-\	.	1f	Ve-
*	*	*Xlig	*	*	*	*	*
*	*	*lig	*	*	*	*	*
1C	.	1G	.	1.c	.	.	.
.	.	.	.	.	.	2e\	.
=9-	=9-	=9-	=9-	=9-	=9-	=9-	=9-
1FF	.	1A	.	.	.	1f	-ſtras
.	.	.	.	4B-\	.	.	.
.	.	.	.	4A/	.	.	.
*	*	*Xlig	*	*	*	*	*
!LO:SIC:v:t=custos C	!	!	!	!	!	!	!
*	*	*lig	*	*	*	*	*ij
1BB-	.	1F	.	2.B-\	.	1d	prin-
.	.	.	.	4A/	.	.	.
!LO:LB:g=original	!	!	!	!	!	!	!
=10-	=10-	=10-	=10-	=10-	=10-	=10-	=10-
2.C/	.	1E	.	4G/	.	1c	-ci-
.	.	.	.	4F/	.	.	.
!	!	!	!	!LO:SIC:v:t=custos F	!	!	!
.	.	.	.	1G	.	.	.
4BB-/	.	.	.	.	.	.	.
*	*	*Xlig	*	*	*	*	*
2GG/	.	1D	-ci-	.	.	2B-/	.
2AA/	.	.	.	4F/	.	1A/	.
.	.	.	.	4E/	.	.	.
=11-	=11-	=11-	=11-	=11-	=11-	=11-	=11-
*	*	*lig	*	*	*	*	*
1BB-	Ve-	1D	-pes	1D	.	.	.
!	!	!	!	!	!	!LO:SIC:v:t=custos A	!
.	.	.	.	.	.	2G/	.
!	!	!	!	!	!	!LO:LB:g=original	!
2AA/	-stras	1C	.	2E/	.	2A/	-pes
*	*	*	*	*	*	*	*Xij
4FF/	.	.	.	1A\	Ve-	2.c/	Ve-
4GG/	.	.	.	.	.	.	.
*	*	*Xlig	*	*	*	*	*
=12-	=12-	=12-	=12-	=12-	=12-	=12-	=12-
*	*	*lig	*	*	*	*	*
4AA/	.	1C	Ve-	.	.	.	.
4BB-/	.	.	.	.	.	4d\	.
2C/	Ve-	.	.	4G/	.	2e\	.
.	.	.	.	4A/	.	.	.
2D/	.	1BB-	.	4B-\	.	4d\	.
.	.	.	.	4c\	.	4c/	.
1F\	.	.	.	2.d\	.	4B-/	.
.	.	.	.	.	.	4A/	.
*	*	*Xlig	*	*	*	*	*
=13-	=13-	=13-	=13-	=13-	=13-	=13-	=13-
*	*	*lig	*	*	*	*	*
.	.	1C	.	.	.	2G/	.
.	.	.	.	4c\	.	.	.
2E\	.	.	.	1c	.	2.g\	.
!	!	!LO:SIC:v:t=custos C	!	!	!	!	!
1F	-stras	1D	.	.	.	.	.
.	.	.	.	.	.	4f\	.
.	.	.	.	2B-\	.	1f\	.
*	*	*Xlig	*	*	*	*	*
!	!	!LO:LB:g=original	!	!	!	!	!
=14-	=14-	=14-	=14-	=14-	=14-	=14-	=14-
*	*	*lig	*	*	*	*	*
1G	Ve-	1C	.	1c	.	.	.
.	.	.	.	.	.	2e\	.
4F\	.	1D	.	2A/	.	2.f\	.
4E\	.	.	.	.	.	.	.
4D/	.	.	.	1B-\	.	.	.
4C/	.	.	.	.	.	4e\	.
*	*	*Xlig	*	*	*	*	*
=15-	=15-	=15-	=15-	=15-	=15-	=15-	=15-
*	*	*lig	*	*	*	*	*
1BB-	.	1D	-ſtras	.	.	1d	.
.	.	.	.	4A/	.	.	.
.	.	.	.	4G/	.	.	.
1FF	-stras	1F	.	1A	-ſtras	0c	-ſtras.
*	*	*Xlig	*	*	*	*	*
=16-	=16-	=16-	=16-	=16-	=16-	=16-	=16-
*	*	*lig	*	*	*	*	*
1C	Ve-	1G	.	0r	.	.	.
2D\	.	1F	.	.	.	2r	.
1BB-/	.	.	.	.	.	2F/	prin-
*	*	*Xlig	*	*	*	*	*
=17-	=17-	=17-	=17-	=17-	=17-	=17-	=17-
.	.	1D	.	2r	.	2G/	-ci-
2GG/	.	.	.	2d\	et	2B-/	.
*	*	*lig	*	*	*	*	*
1D	.	1F	.	2d\	e-	1A	-pes
.	.	.	.	2d\	-le-	.	.
=18-	=18-	=18-	=18-	=18-	=18-	=18-	=18-
!	!	!LO:TX:t=P:problem:rozdzielacz słów / znak oddechu:global	!	!	!	!	!
1GG	-stras	1D,<	.	2B-\	-ua-	2.G/	Ve-
.	.	.	.	2B-\	-mi-	.	.
.	.	.	.	.	.	4F/	.
*	*	*Xlig	*	*	*	*	*
2rBB	.	1F	et	0A	-ni	1D	-ſtras
!LO:SIC:v:t=custos D	!	!	!	!	!	!	!
2D/	et	.	.	.	.	.	.
!LO:LB:g=original	!	!	!	!	!	!	!
=19-	=19-	=19-	=19-	=19-	=19-	=19-	=19-
2D/	e-	1F	e-	.	.	2rB	.
2D/	-le-	.	.	.	.	2d\	et
*	*	*lig	*	*	*ij	*	*
2BB-/	-ua-	1F	-le-	2.B-\	et	2d\	e-
2BB-/	-mi-	.	.	.	.	2d\	-le-
.	.	.	.	4c\	.	.	.
=20-	=20-	=20-	=20-	=20-	=20-	=20-	=20-
1GG	-ni	1G	.	2.d\	e-	2B-/	-ua-
.	.	.	.	.	.	2B-/	-mi-
.	.	.	.	8c\L	.	.	.
.	.	.	.	8B-\J	.	.	.
*	*	*Xlig	*	*	*	*	*
*	*	*lig	*	*	*	*	*
0C	por-	1G	-ua-	2.c\	.	1G	-ni
.	.	.	.	8B-\L	.	.	.
.	.	.	.	8A\J	.	.	.
=21-	=21-	=21-	=21-	=21-	=21-	=21-	=21-
.	.	1E	.	2G/	.	0c	por-
.	.	.	.	2.A/	.	.	.
*	*	*Xlig	*	*	*	*	*
*	*	*lig	*	*	*	*	*
1FF	-tae	1F	.	.	.	.	.
!	!	!	!	!LO:SIC:v:t=custos c	!	!	!
.	.	.	.	4B-\	.	.	.
!	!	!	!	!LO:LB:g=original	!	!	!
.	.	.	.	1c\	-ua-	.	.
=22-	=22-	=22-	=22-	=22-	=22-	=22-	=22-
2r	.	1D	.	.	.	2F/	-tae
2F\	et	.	.	2B-\	-mi-	1f	por-
*	*	*Xlig	*	*	*	*	*
*	*	*lig	*	*	*	*	*
1G	e-	1C	-mi-	1c	-ni	.	.
.	.	.	.	.	.	2e\	.
=23-	=23-	=23-	=23-	=23-	=23-	=23-	=23-
1GG	-le-	1D	.	1.B-	e-	1.d	.
*	*	*Xlig	*	*	*	*	*
2.C/	-ua-	1D	-ni	.	.	.	.
.	.	.	.	4A/	-le-	4c/	.
!	!	!	!	!	!	!LO:SIC:v:t=custos A	!
4C/	-mi-	.	.	4G/	.	4B-/	.
!	!	!	!	!	!	!LO:LB:g=original	!
=24-	=24-	=24-	=24-	=24-	=24-	=24-	=24-
*	*	*lig	*	*	*	*	*
1D	-ni	1F	por-	2F/	-ua-	2A/	.
.	.	.	.	2D/	-mi-	2B-/	.
2.F\	por-	1D	.	2A/	-ni	2A/	.
*	*	*	*	*	*Xij	*	*
.	.	.	.	1A\	por-	2.d\	.
4E\	.	.	.	.	.	.	.
*	*	*Xlig	*	*	*	*	*
=25-	=25-	=25-	=25-	=25-	=25-	=25-	=25-
*	*	*lig	*	*	*	*	*
1D	.	1F	.	.	.	.	.
.	.	.	.	.	.	4e\	.
.	.	.	.	2B-\	.	4f\	.
.	.	.	.	.	.	4d\	.
1C	.	1G	.	1c	.	4e\	.
.	.	.	.	.	.	4f\	.
.	.	.	.	.	.	2g\	.
*	*	*Xlig	*	*	*	*	*
=26-	=26-	=26-	=26-	=26-	=26-	=26-	=26-
*	*	*lig	*	*	*	*	*
2D/	.	1D	.	2A/	.	2f\	.
2F\	.	.	.	1B-	.	1d	.
1E	.	1G	.	.	.	.	.
.	.	.	.	4A/	.	2c/	.
.	.	.	.	4G/	.	.	.
*	*	*Xlig	*	*	*	*	*
=27-	=27-	=27-	=27-	=27-	=27-	=27-	=27-
0D	.	1A	.	2.F/	.	2.d\	.
.	.	.	.	4G/	.	4e\	.
*	*	*lig	*	*	*	*	*
.	.	1F	-tae	2A/	.	2f\	.
.	.	.	.	1B-\	.	1d\	.
=28-	=28-	=28-	=28-	=28-	=28-	=28-	=28-
2GG/	.	1D	.	.	.	.	.
2BB-/	.	.	.	2G/	.	4c/	.
.	.	.	.	.	.	4B-/	.
*	*	*Xlig	*	*	*	*	*
*	*	*lig	*	*	*	*	*
1FF	.	1F	.	1A	.	4A/	.
.	.	.	.	.	.	4G/	.
.	.	.	.	.	.	1c\	.
=29-	=29-	=29-	=29-	=29-	=29-	=29-	=29-
!LO:SIC:v:t=custos C	!	!	!	!	!	!	!
1GG	tae	1D	.	1G	-tae	.	.
.	.	.	.	.	.	2B-/	.
*	*	*Xlig	*	*	*	*	*
!LO:LB:g=original	!	!LO:SIC:v:t=custos C	!	!	!	!	!
2rBB	.	1C	.	1G	ae-	1c	-tae
2C/	ae-	.	.	.	.	.	.
!	!	!LO:PB:g=original	!	!	!	!	!
=30-	=30-	=30-	=30-	=30-	=30-	=30-	=30-
2AA/	-ter-	1C	ae-	2A/	-ter-	2r	.
1C	-na-	.	.	4G/	.	2c/	ae-
.	.	.	.	4F/	.	.	.
*	*	*lig	*	*	*	*	*
.	.	1C	-ter-	2.E/	.	2.G/	-ter-
4BB-/	.	.	.	.	.	.	.
4AA/	.	.	.	4F/	.	4A/	.
=31-	=31-	=31-	=31-	=31-	=31-	=31-	=31-
!	!	!LO:TX:t=P:problem:♭ above	!	!	!	!	!
2GG/	.	1BB-X	.	4G/	.	2B-/	.
.	.	.	.	4D/	.	.	.
2BB-/	.	.	.	1G	.	2G/	.
*	*	*Xlig	*	*	*	*	*
1AA	.	1C	.	.	.	2A/	.
.	.	.	.	2F/	na-	1c\	-na-
=32-	=32-	=32-	=32-	=32-	=32-	=32-	=32-
*	*	*lig	*	*	*	*	*
!	!	!	!	!LO:SIC:v:t=custos B-	!	!	!
1GG	-les	1D	-na-	0G	-les	.	.
.	.	.	.	.	.	2B-/	-les
2rBB	.	1C	.	.	.	2c/	.
*	*ij	*	*	*	*	*	*ij
2C/	ae-	.	.	.	.	2e\	ae-
*	*	*Xlig	*	*	*	*	*
!	!	!	!	!LO:LB:g=original	!	!	!
=33-	=33-	=33-	=33-	=33-	=33-	=33-	=33-
!	!	!	!	!LO:TX:t=P:problem:dźwięk nieczytelny [przyjęto zgodnie z custos]	!	!	!
2BB-/	-ter-	1D	.	2B-\	por-	2d\	-ter-
2GG/	.	.	.	2c\	.	2g\	.
*	*	*lig	*	*	*	*	*
1BB-	-na-	1D	les	1B-	-tae	4f\	.
.	.	.	.	.	.	4d\	.
!	!	!	!	!	!	!LO:SIC:v:t=custos e	!
.	.	.	.	.	.	1f\	-na-
=34-	=34-	=34-	=34-	=34-	=34-	=34-	=34-
2FF/	-les	1F	.	2.A/	ae-	.	.
1F	ae-	.	.	.	.	4e\	.
.	.	.	.	4B-\	.	4d\	.
*	*	*Xlig	*	*	*	*	*
.	.	1G	.	2c\	.	1c	-les
2E\	.	.	.	2C/	.	.	.
=35-	=35-	=35-	=35-	=35-	=35-	=35-	=35-
2.D/	-ter-	0F	.	2.F/	.	2r	.
.	.	.	.	.	.	2A/	ae-
4C/	.	.	.	4E/	.	.	.
2BB-/	.	.	.	2D/	.	2B-/	-ter-
2AA/	.	.	.	2C/	.	2c/	.
=36-	=36-	=36-	=36-	=36-	=36-	=36-	=36-
1GG	-na-	1D	.	2G/	ter-	2d\	.
.	.	.	.	2B-\	-na-	2B-/	.
*	*	*lig	*	*	*	*	*
1FF	-les	1F	.	0A	-les	1c	.
*	*Xij	*	*	*	*	*	*
=37-	=37-	=37-	=37-	=37-	=37-	=37-	=37-
1rD	.	1D,<	.	.	.	1d	na-
*	*	*Xlig	*	*	*	*	*
2rBB	.	1F	et	2r	.	2c/	-les
*	*	*	*	*	*	*	*Xij
2FF/	et	.	.	2c\	et	2A/	et
=38-	=38-	=38-	=38-	=38-	=38-	=38-	=38-
2BB-/	in-	1F	in-	2d\	in-	2B-/	in-
!LO:SIC:v:t=custos BB-	!	!	!	!	!	!	!
2AA/	-tro-	.	.	2c\	-tro-	2c/	-tro-
!LO:LB:g=original	!	!	!	!	!	!	!
2BB-/	-i-	1F	-tro-	2B-\	-i-	2d\	-i-
2C/	.	.	.	1A\	-bit	1c\	-bit
=39-	=39-	=39-	=39-	=39-	=39-	=39-	=39-
*	*	*lig	*	*	*ij	*	*
1D	.	1F	-i-	.	.	.	.
.	.	.	.	2F/	et	2B-/	Rex
*	*	*	*	*	*	*	*ij
2.C/	.	1E	.	2G/	in-	1c	et
.	.	.	.	2C/	-tro-	.	.
8BB-/L	.	.	.	.	.	.	.
8AA/J	.	.	.	.	.	.	.
*	*	*Xlig	*	*	*	*	*
=40-	=40-	=40-	=40-	=40-	=40-	=40-	=40-
*	*	*lig	*	*	*	*	*
1GG	.	1G	.	2.D/	-i-	2B-/	in-
.	.	.	.	.	.	1d	-tro-
.	.	.	.	4E/	.	.	.
0D	-bit	1A	.	2.F/	.	.	.
.	.	.	.	.	.	4c/	.
.	.	.	.	4G/	.	4B-/	.
*	*	*Xlig	*	*	*	*	*
=41-	=41-	=41-	=41-	=41-	=41-	=41-	=41-
*	*	*lig	*	*	*	*	*
.	.	1F	.	2.A/	.	2A/	.
.	.	.	.	.	.	1d	.
.	.	.	.	8G/L	.	.	.
.	.	.	.	8F/J	.	.	.
2rBB	.	1E	.	2G/	.	.	.
*	*ij	*	*	*	*	*	*
2AA/	et	.	.	2A/	.	2c/	.
*	*	*Xlig	*	*	*	*	*
=42-	=42-	=42-	=42-	=42-	=42-	=42-	=42-
2BB-/	in-	1D	-bit	2F/	.	2.d\	.
!	!	!	!	!LO:SIC:v:t=custos F	!	!	!
2GG/	-tro-	.	.	2G/	.	.	.
.	.	.	.	.	.	4c/	.
!	!	!	!	!LO:PB:g=original	!	!	!
*	*	*lig	*	*	*	*	*
2.BB-/	-i-	1D	.	2F/	.	4d\	.
.	.	.	.	.	.	4e\	.
.	.	.	.	2B-\	.	2.f\	.
4C/	.	.	.	.	.	.	.
=43-	=43-	=43-	=43-	=43-	=43-	=43-	=43-
1D	.	1F	.	0A	-bit	.	.
.	.	.	.	.	.	4e\	.
.	.	.	.	.	.	1d	-i-
*	*	*Xlig	*	*	*	*	*
1AA	.	1E	.	.	.	.	.
.	.	.	.	.	.	2c/	-bit
=44-	=44-	=44-	=44-	=44-	=44-	=44-	=44-
*	*	*lig	*	*	*	*	*
1BB-	-bit	1D	.	2F/	et	1d	Rex
*	*Xij	*	*	*	*	*	*Xij
.	.	.	.	2B-\	in-	.	.
!	!	!LO:SIC:v:t=custos C	!	!	!	!	!
1FF	Rex	1F	.	2A/	-tro-	2r	.
.	.	.	.	2.F/	-i-	2f\	et
*	*	*Xlig	*	*	*	*	*
!	!	!LO:LB:g=original	!	!	!	!	!
=45-	=45-	=45-	=45-	=45-	=45-	=45-	=45-
*	*	*lig	*	*	*	*	*
2rBB	.	1C	.	.	.	2e\	in-
.	.	.	.	4G/	.	.	.
!	!	!	!	!	!	!LO:TX:b:t=-ibit	!
!	!	!	!	!	!	!LO:SIC:v:t=custos d	!
2FF/	et	.	.	2A/	.	2c/	-tro-
!	!	!	!	!	!	!LO:PB:g=original	!
2BB-/	in-	1BB-	.	2F/	.	2.d\	.
1D\	.	.	.	2.B-\	.	.	.
.	.	.	.	.	.	4e\	.
*	*	*Xlig	*	*	*	*	*
=46-	=46-	=46-	=46-	=46-	=46-	=46-	=46-
*	*	*lig	*	*	*	*	*
.	.	1BB-X	Rex	.	.	2f\	-i-
.	.	.	.	4A/	.	.	.
4C/	-tro-	.	.	1G	.	4e\	.
4BB-/	.	.	.	.	.	4d\	.
1AA	-i-	1C	.	.	.	1c	bit
.	.	.	.	2F/	.	.	.
*	*	*Xlig	*	*	*	*	*
=47-	=47-	=47-	=47-	=47-	=47-	=47-	=47-
*	*	*lig	*	*	*	*	*
1GG	-bit	1D	.	1G	.	1B-	.
2FF/	Rex	1F	.	1A	bit	1c	.
1F\	glo-	.	.	.	.	.	.
*	*	*Xlig	*	*	*Xij	*	*
=48-	=48-	=48-	=48-	=48-	=48-	=48-	=48-
*	*	*lig	*	*	*	*	*
.	.	1C	glo-	1G	Rex	2.c/	Rex
!LO:SIC:v:t=custos F	!	!	!	!	!	!	!
2E\	-ri-	.	.	.	.	.	.
.	.	.	.	.	.	4B-/	.
!LO:LB:g=original	!	!	!	!	!	!	!
1F	-ae	1D	.	2F/	glo-	2A/	glo-
.	.	.	.	1D/	.	2B-/	-ri-
*	*	*Xlig	*	*	*	*	*
=49-	=49-	=49-	=49-	=49-	=49-	=49-	=49-
*	*	*lig	*	*	*	*	*
2r	.	1F	.	.	.	2A/	-ae
*	*ij	*	*	*	*	*	*ij
2D/	glo-	.	.	1A	-ri-	1d	glo-
2.F\	.	1D	.	.	.	.	.
.	.	.	.	2F/	-ae	4c/	.
4E\	.	.	.	.	.	4B-/	.
*	*	*Xlig	*	*	*	*	*
=50-	=50-	=50-	=50-	=50-	=50-	=50-	=50-
*	*	*lig	*	*	*ij	*	*
1D	.	1F	.	2A/	glo-	2A/	.
.	.	.	.	2B-\	.	2d\	.
2C/	.	[>1G	.	2c\	.	2e\	.
2BB-/	-ri-	.	.	2d\	-ri-	1f\	.
*	*	*Xlig	*	*	*	*	*
=51-	=51-	=51-	=51-	=51-	=51-	=51-	=51-
*	*	*lig	*	*	*	*	*
1C	-ae	1G]	.	1c	-ae	.	.
*	*Xij	*	*	*	*	*	*
.	.	.	.	.	.	2e\	.
2r	.	1F	.	1rf	.	2f\	.
2D/	Rex	.	.	.	.	2d\	-ri-
*	*	*Xlig	*	*	*	*	*
=52-	=52-	=52-	=52-	=52-	=52-	=52-	=52-
*	*	*lig	*	*	*	*	*
2C/	.	1G	.	2rd	.	2e\	-ae
2BB-/	glo-	.	.	2B-\	Rex	2.g\	Rex
2AA/	.	1A	.	2c\	glo-	.	.
.	.	.	.	.	.	4f\	.
2FF/	.	.	.	2d\	.	1f\	glo-
*	*	*Xlig	*	*	*	*	*
=53-	=53-	=53-	=53-	=53-	=53-	=53-	=53-
1C	-ri-	1G	-ri-	1c	-ri-	.	.
.	.	.	.	.	.	2e\	-ri-
1FFl;;	-ae	1Fl;	-ae.	1A;	-ae.	1fl;<	-ae
*	*	*	*	*	*Xij	*	*Xij
!LO:PB:g=original	!	!	!	!LO:LB:g=original	!	!LO:LB:g=original	!
=54||	=54||	=54||	=54||	=54||-	=54||	=54||	=54||
*k[b-]	*	*k[b-]	*	*k[b-]	*	*k[b-]	*
*M2/1	*	*M2/1	*	*M2/1	*	*M2/1	*
*met(c|)	*	*met(c|)	*	*met(c|)	*	*met(c|)	*
1D	Quis	1D	Quis	1A	Quis	1d	Quis
*	*	*lig	*	*	*	*	*
2.F\	a-	1D	a-	1.A	a-	2d\	a-
.	.	.	.	.	.	1f\	-ſcen-
4E\	.	.	.	.	.	.	.
=55-	=55-	=55-	=55-	=55-	=55-	=55-	=55-
2D/	.	1F	.	.	.	.	.
2BB-/	.	.	.	2B-\	-ſcen-	4e\	.
.	.	.	.	.	.	4d\	.
*	*	*Xlig	*	*	*	*	*
1C	-ſcen-	1E	.	1G	.	1c	.
=56-	=56-	=56-	=56-	=56-	=56-	=56-	=56-
*	*	*lig	*	*	*	*	*
2FF/	.	1F	-ſcen-	2A/	-det	2c/	-det
2BB-/	-det	.	.	2F/	in	2d\	.
2.GG/	in	1G	.	2.B-\	mon-	1.d	in
4AA/	.	.	.	4A/	.	.	.
*	*	*Xlig	*	*	*	*	*
=57-	=57-	=57-	=57-	=57-	=57-	=57-	=57-
2BB-/	mon-	1G	-det	4G/	.	.	.
.	.	.	.	4F/	.	.	.
1C	.	.	.	4E/	.	4c/	.
.	.	.	.	4D/	.	4d\	.
.	.	1G	in	2C/	.	2e\	mon-
2BB-/	.	.	.	2D/	.	2.d\	.
=58-	=58-	=58-	=58-	=58-	=58-	=58-	=58-
1C	.	1G	mon-	1E	.	.	.
.	.	.	.	.	.	4c/	.
.	.	.	.	.	.	1c	.
!	!	!LO:SIC:v:t=custos G	!	!	!	!	!
1GG	-tem	1G	-te(m)	1D	-te(m)	.	.
.	.	.	.	.	.	2B-/	.
!	!	!LO:LB:g=original	!	!	!	!	!
=59-	=59-	=59-	=59-	=59-	=59-	=59-	=59-
*	*	*lig	*	*	*	*	*
2rBB	.	1G	Do-	2C/	Do-	1c	.
2C/	Do-	.	.	2E/	.	.	.
2D/	.	1F	.	2F/	-mi-	1A	-tem
1F\	.	.	.	2D/	.	.	.
*	*	*Xlig	*	*	*	*	*
=60-	=60-	=60-	=60-	=60-	=60-	=60-	=60-
*	*	*lig	*	*	*	*	*
.	.	1G	.	1C	-ni	2rA	.
2E\	.	.	.	.	.	2c/	do-
2D/	.	1A	.	2r	.	2d\	.
2C/	.	.	.	2c\	in	2e\	.
*	*	*Xlig	*	*	*	*	*
=61-	=61-	=61-	=61-	=61-	=61-	=61-	=61-
*	*	*lig	*	*	*	*	*
1BB-	.	1B-	.	1d	mon-	2d\	.
.	.	.	.	.	.	1f	.
1C	.	1G	.	2.c\	.	.	.
.	.	.	.	.	.	2e\	.
.	.	.	.	4B-\	.	.	.
*	*	*Xlig	*	*	*	*	*
=62-	=62-	=62-	=62-	=62-	=62-	=62-	=62-
2.D/	.	1F	.	2A/	-tem	2.f\	.
.	.	.	.	2.D/	do-	.	.
4C/	.	.	.	.	.	4e\	.
*	*	*lig	*	*	*	*	*
2BB-/	.	1F	-mi-	.	.	2d\	.
.	.	.	.	4E/	.	.	.
2AA/	.	.	.	1F/	.	2c/	-mi-
=63-	=63-	=63-	=63-	=63-	=63-	=63-	=63-
!LO:SIC:v:t=custos FF	!	!	!	!	!	!	!
1GG	-mi-	1G	.	.	.	1B-	-ni
.	.	.	.	2E/	-mi-	.	.
*	*	*Xlig	*	*	*	*	*ij
!LO:LB:g=original	!	!	!	!LO:SIC:v:t=custos C	!	!	!
2FF/	-ni	1A	.	1F	-ni	2A/	do-
1F\	Do-	.	.	.	.	2c/	.
!	!	!	!	!LO:LB:g=original	!	!	!
=64-	=64-	=64-	=64-	=64-	=64-	=64-	=64-
*	*	*lig	*	*	*ij	*	*
.	.	1G	.	2rF	.	2d\	.
2E\	.	.	.	2C/	do-	2e\	.
2.F\	.	1A	.	2F/	.	2c/	.
.	.	.	.	1D/	.	1f\	.
4E\	.	.	.	.	.	.	.
*	*	*Xlig	*	*	*	*	*
=65-	=65-	=65-	=65-	=65-	=65-	=65-	=65-
*	*	*lig	*	*	*	*	*
2D/	.	1A	-ni	.	.	.	.
2C/	.	.	.	2E/	.	1e	-mi-
2BB-/	.	1B-	.	2F/	.	.	.
2GG/	-mi-	.	.	2G/	.	1d\	.
*	*	*Xlig	*	*	*	*	*
=66-	=66-	=66-	=66-	=66-	=66-	=66-	=66-
*	*	*lig	*	*	*	*	*
1AA	-ni	1A	.	1E	-mi-	.	.
!	!	!	!	!	!	!LO:SIC:v:t=custos d	!
.	.	.	.	.	.	2c/	.
!	!	!	!	!	!	!LO:LB:g=original	!
2r	.	1F	.	1D	-ni	2d\	-ni
*	*	*	*	*	*	*	*Xij
2D/	in	.	.	.	.	2f\	in
*	*	*Xlig	*	*	*	*	*
=67-	=67-	=67-	=67-	=67-	=67-	=67-	=67-
*	*	*lig	*	*	*	*	*
2C/	mon-	1A	.	2rF	.	2e\	mon-
2AA/	-tem	.	.	2E/	do-	2.c/	.
2.C/	Do-	1G	.	2E/	-mi-	.	.
.	.	.	.	.	.	4d\	.
.	.	.	.	2.G/	.	4e\	.
4BB-/	.	.	.	.	.	4f\	.
*	*	*Xlig	*	*	*	*	*
=68-	=68-	=68-	=68-	=68-	=68-	=68-	=68-
*	*	*lig	*	*	*	*	*
4GG/	.	1B-	.	.	.	2g\	.
4AA/	.	.	.	4F/	.	.	.
4BB-/	.	.	.	4D/	.	4f\	.
4C/	.	.	.	4E/	.	4e\	.
4D\	.	1A	.	4F/	.	2d\	.
4E\	.	.	.	4G/	.	.	.
2F\	.	.	.	4A\	.	2c/	-te(m)
.	.	.	.	4B-\	.	.	.
*	*	*Xlig	*	*	*	*	*
=69-	=69-	=69-	=69-	=69-	=69-	=69-	=69-
4C/	.	1G,<	.	1c	.	2.e\	Do-
4D\	.	.	.	.	.	.	.
4E\	.	.	.	.	.	.	.
4F\	.	.	.	.	.	4e\	-mi-
2G\	.	1G	aut	2B-\	.	2d\	-ni
2C/	-mi-	.	.	2c\	-ni	2e\	.
*	*	*	*	*	*Xij	*	*
=70-	=70-	=70-	=70-	=70-	=70-	=70-	=70-
*	*	*lig	*	*	*	*	*
2BB-/	-ni	1B-	quis	2F/	aut	1.d	.
2.GG/	aut	.	.	2.B-\	quis	.	.
.	.	1G	.	.	.	.	.
4AA/	.	.	.	4A/	.	.	.
2BB-/	quis	.	.	1G/	.	2B-/	aut
*	*	*Xlig	*	*	*	*	*
=71-	=71-	=71-	=71-	=71-	=71-	=71-	=71-
*	*	*lig	*	*	*	*	*
1AA	Sta-	1A	.	.	.	1c	quis
.	.	.	.	2F/	Sta-	.	.
2GG/	bit	1B-	.	2G/	-bit	2B-/	.
*	*	*	*	*	*ij	*	*
!LO:SIC:v:t=custos C	!	!	!	!	!	!	!
2BB-/	.	.	.	2D/	Sta-	1G/	Sta-
*	*	*Xlig	*	*	*	*	*
!LO:LB:g=original	!	!	!	!	!	!	!
=72-	=72-	=72-	=72-	=72-	=72-	=72-	=72-
*	*	*lig	*	*	*	*	*
2C/	.	1A	.	2E/	.	.	.
2D/	.	.	.	2F/	.	2F/	.
0.GG	.	1G	.	0D	-bit	1G	-bit
*	*	*Xlig	*	*	*Xij	*	*
=73-	=73-	=73-	=73-	=73-	=73-	=73-	=73-
.	.	1G	Sta-	.	.	2r	.
.	.	.	.	.	.	1d	Sta-
.	.	1G	-bit	2r	.	.	.
.	.	.	.	1d\	Sta-	2d\	-bit
=74-	=74-	=74-	=74-	=74-	=74-	=74-	=74-
!	!	!LO:SIC:v:t=custos G	!	!	!	!	!
2r	.	1G	in	.	.	2B-/	in
!	!	!	!	!LO:SIC:v:t=custos B-	!	!	!
1G	Sta-	.	.	2d\	-bit	2B-/	lo-
!	!	!LO:LB:g=original	!	!LO:LB:g=original	!	!	!
.	.	1G	lo-	2B-\	in	2G/	-co
*	*	*	*	*	*	*	*ij
2G\	-bit	.	.	2B-\	lo-	1g\	Sta-
=75-	=75-	=75-	=75-	=75-	=75-	=75-	=75-
2E\	in	1G	-co	2G/	-co	.	.
*	*	*	*	*	*ij	*	*
2E\	lo-	.	.	1G	Sta-	2g\	-bit
2C/	-co	1G	San-	.	.	2e\	in
*	*ij	*	*	*	*	*	*
1C/	Sta-	.	.	2G/	-bit	2e\	lo-
=76-	=76-	=76-	=76-	=76-	=76-	=76-	=76-
*	*	*lig	*	*	*	*	*
.	.	1G	-cto	2E/	in	2c/	-co
2C/	-bit	.	.	2E/	lo-	1c	Sta-
2AA/	in	1A	.	2C/	-co	.	.
2AA/	lo-	.	.	1c\	Sta-	2c/	-bit
*	*	*Xlig	*	*	*	*	*
=77-	=77-	=77-	=77-	=77-	=77-	=77-	=77-
*	*	*lig	*	*	*	*	*
2FF/	-co	1A	e-	.	.	2A/	in
*	*Xij	*	*	*	*	*	*
2.F\	San-	.	.	2c\	-bit	2A/	lo-
!	!	!	!	!	!	!LO:SIC:v:t=custos c	!
.	.	1F	.	2A/	in	2F/	-co
*	*	*	*	*	*	*	*Xij
4E\	.	.	.	.	.	.	.
!	!	!	!	!	!	!LO:LB:g=original	!
4D/	.	.	.	2A/	lo-	2.f\	San-
4C/	.	.	.	.	.	.	.
*	*	*Xlig	*	*	*	*	*
=78-	=78-	=78-	=78-	=78-	=78-	=78-	=78-
*	*	*lig	*	*	*	*	*
1D	.	1A	.	1F	-co	.	.
*	*	*	*	*	*Xij	*	*
.	.	.	.	.	.	4e\	.
.	.	.	.	.	.	4d\	.
.	.	.	.	.	.	4c/	.
2.GG/	.	1G	.	2rF	.	1.d	.
.	.	.	.	2.D/	San-	.	.
4AA/	.	.	.	.	.	.	.
*	*	*Xlig	*	*	*	*	*
=79-	=79-	=79-	=79-	=79-	=79-	=79-	=79-
*	*	*lig	*	*	*	*	*
2BB-/	.	1F	.	.	.	.	.
.	.	.	.	4E/	.	.	.
2AA/	-cto	.	.	2F/	-cto	2c/	-cto
1GG	e-	1D	.	1G	.	1B-	e-
*	*	*Xlig	*	*	*	*	*
=80-	=80-	=80-	=80-	=80-	=80-	=80-	=80-
*	*	*lig	*	*	*	*	*
2FF/	-i(us)	1F	.	2A/	e-	1A	.
1F	e-	.	.	2F/	.	.	.
.	.	1G	.	1C	-ius	2G/	-ius
2E\	.	.	.	.	.	2g\	e-
*	*	*Xlig	*	*	*	*	*
=81-	=81-	=81-	=81-	=81-	=81-	=81-	=81-
*	*	*	*	*	*ij	*	*
2D/	.	1A	.	1F	San-	2f\	.
2F\	.	.	.	.	.	1d	.
*	*	*lig	*	*	*	*	*
1E	.	1G	.	2.G/	.	.	.
.	.	.	.	.	.	2c/	.
.	.	.	.	4A/	.	.	.
=82-	=82-	=82-	=82-	=82-	=82-	=82-	=82-
!LO:SIC:v:t=custos GG	!	!	!	!	!	!	!
1D	-i(us)	1F	.	2B-\	-cto	1.d	.
.	.	.	.	2.A/	.	.	.
*	*	*Xlig	*	*	*	*	*
!LO:LB:g=original	!	!	!	!	!	!	!
*	*	*lig	*	*	*	*	*
1GG	.	1G	.	.	.	.	.
.	.	.	.	4G/	.	.	.
.	.	.	.	1G/	e-	4c/	.
.	.	.	.	.	.	4B-/	.
=83-	=83-	=83-	=83-	=83-	=83-	=83-	=83-
1D	.	1D	.	.	.	1A	.
.	.	.	.	2F/	-ius	.	.
*	*	*Xlig	*	*	*Xij	*	*
1GG	.	1D,<	-ius	4G/	in-	2G/	-ius
.	.	.	.	4A/	.	.	.
.	.	.	.	4B-/	.	2d\	.
.	.	.	.	4G/	.	.	.
=84-	=84-	=84-	=84-	=84-	=84-	=84-	=84-
0r	.	1F	in-	4A/	.	2c/	in-
!	!	!	!	!LO:SIC:v:t=custos c	!	!	!
.	.	.	.	4B-/	.	.	.
!	!	!	!	!LO:LB:g=original	!	!	!
.	.	.	.	2.c\	.	1f	-no-
.	.	1F	-no-	.	.	.	.
.	.	.	.	4B-\	.	.	.
.	.	.	.	1B-\	-no-	4e\	.
.	.	.	.	.	.	4d\	.
=85-	=85-	=85-	=85-	=85-	=85-	=85-	=85-
*	*	*lig	*	*	*	*	*
1r	.	1F	-cens	.	.	1c	-cens
.	.	.	.	2A/	-cens	.	.
1GG	in-	1G	.	2B-\	ma-	1B-	.
.	.	.	.	2d\	-ni-	.	.
*	*	*Xlig	*	*	*	*	*
=86-	=86-	=86-	=86-	=86-	=86-	=86-	=86-
*	*	*lig	*	*	*	*	*
2.C/	-no-	1G	ma-	2c\	-b(us)	2r	.
*	*	*	*	*	*ij	*	*
.	.	.	.	1C	in-	2G/	in-
4BB-/	.	.	.	.	.	.	.
2AA/	-cens	1F	.	.	.	2c/	-no-
2BB-/	.	.	.	2D/	-no-	4B-/	.
.	.	.	.	.	.	4A/	.
*	*	*Xlig	*	*	*	*	*
=87-	=87-	=87-	=87-	=87-	=87-	=87-	=87-
*	*	*lig	*	*	*	*	*
1C	ma-	1E	.	2E/	-cens	1G	-cens
.	.	.	.	1G	ma-	.	.
1AA	-ni-	1C	.	.	.	2A/	.
.	.	.	.	2F/	-ni-	1c\	ma-
*	*	*Xlig	*	*	*	*	*
=88-	=88-	=88-	=88-	=88-	=88-	=88-	=88-
*	*	*lig	*	*	*	*	*
1GG	-b(us)	1D	.	1G	-bus	.	.
*	*	*	*	*	*Xij	*	*
.	.	.	.	.	.	2B-/	.
!	!	!LO:SIC:v:t=custos E	!	!	!	!	!
1FF	.	1F	.	2.C/	et	2.A/	.
.	.	.	.	4D/	.	4B-/	.
*	*	*Xlig	*	*	*	*	*
!	!	!LO:LB:g=original	!	!	!	!	!
=89-	=89-	=89-	=89-	=89-	=89-	=89-	=89-
*	*	*lig	*	*	*	*	*
1.C	.	1E	.	4E/	.	4c/	.
!	!	!	!	!	!	!LO:SIC:v:t=custos e	!
.	.	.	.	4F/	.	4d\	.
!	!	!	!	!	!	!LO:LB:g=original	!
.	.	.	.	2G/	.	2.e\	.
.	.	1G	.	2C/	mun-	.	.
.	.	.	.	.	.	4d\	.
2BB-/	.	.	.	2D/	-do	1d\	-ni-
*	*	*Xlig	*	*	*	*	*
=90-	=90-	=90-	=90-	=90-	=90-	=90-	=90-
*	*	*lig	*	*	*	*	*
1AA	.	1A	.	1E	cor-	.	.
.	.	.	.	.	.	2c/	.
2rC	.	1F	.	2D/	-de	1d	-bus
*	*	*	*	*	*ij	*	*
1D\	ma-	.	.	2.A/	et	.	.
*	*	*Xlig	*	*	*	*	*
=91-	=91-	=91-	=91-	=91-	=91-	=91-	=91-
*	*	*lig	*	*	*	*	*
.	.	1E	.	.	.	2r	.
.	.	.	.	4B-\	.	.	.
2C/	-ni-	.	.	2c\	mun-	2g\	in-
2D/	-b(us)	1D	.	2A/	-do	2f\	-no-
2.BB-/	.	.	.	2B-\	cor-	2.d\	-cens
*	*	*Xlig	*	*	*	*	*
=92-	=92-	=92-	=92-	=92-	=92-	=92-	=92-
.	.	1D	-ni-	2G/	-de	.	.
4AA/	.	.	.	.	.	4c/	.
4GG/	.	.	.	2.G/	et	4B-/	.
4FF/	.	.	.	.	.	4A/	.
*	*	*lig	*	*	*	*	*
1GG	.	1D	-bus	.	.	2B-/	.
.	.	.	.	4A/	.	.	.
.	.	.	.	2B-\	mun-	2G/	.
=93-	=93-	=93-	=93-	=93-	=93-	=93-	=93-
2rBB	.	1F	.	4A/	do	2A/	ma-
.	.	.	.	4G/	.	.	.
2FF/	in-	.	.	2A/	cor-	2c/	-ni-
*	*	*Xlig	*	*	*	*	*
!LO:SIC:v:t=custos BB-	!	!	!	!LO:SIC:v:t=custos B-	!	!	!
2GG/	-no-	1D	.	1F	-de	2.B-/	-bus
*	*	*	*	*	*Xij	*	*
!LO:LB:g=original	!	!	!	!	!	!	!
1BB-/	.	.	.	.	.	.	.
.	.	.	.	.	.	4c/	.
!	!	!	!	!LO:LB:g=original	!	!	!
=94-	=94-	=94-	=94-	=94-	=94-	=94-	=94-
.	.	0F	.	1r	.	2d\	.
*	*	*	*	*	*	*	*ij
2AA/	.	.	.	.	.	2.c/	ma-
2BB-/	cens	.	.	2r	.	.	.
.	.	.	.	.	.	4B-/	.
2D/	.	.	.	2B-\	in-	1B-/	.
=95-	=95-	=95-	=95-	=95-	=95-	=95-	=95-
1C	ma-	1E	.	1c	-no-	.	.
.	.	.	.	.	.	2A/	-ni-
2.BB-/	.	1D	.	2d\	-cens	1B-	-bus
*	*	*	*	*	*	*	*Xij
.	.	.	.	1B-\	ma-	.	.
4AA/	-ni-	.	.	.	.	.	.
=96-	=96-	=96-	=96-	=96-	=96-	=96-	=96-
*	*	*lig	*	*	*	*	*
1FF	-b(us)	1F	.	.	.	2r	.
.	.	.	.	4A\	.	1f	et
.	.	.	.	4B-\	.	.	.
2rGG	.	1C	.	2c\	.	.	.
2AA/	et	.	.	2c\	-ni-	2e\	.
*	*	*Xlig	*	*	*	*	*
=97-	=97-	=97-	=97-	=97-	=97-	=97-	=97-
2BB-/	.	1BB-	.	2F/	-b(us)	0d	mun-
1D	Mun-	.	.	2.B-\	et	.	.
*	*	*lig	*	*	*	*	*
.	.	1BB-	et	.	.	.	.
.	.	.	.	4A/	.	.	.
4C/	-do	.	.	1G/	mun-	.	.
4BB-/	.	.	.	.	.	.	.
=98-	=98-	=98-	=98-	=98-	=98-	=98-	=98-
1AA	cor-	1C	.	.	.	2c/	-do
.	.	.	.	2F/	.	2A/	cor-
*	*	*Xlig	*	*	*	*	*
*	*	*lig	*	*	*	*	*
1GG	.	1D	.	1G	-do	1B-	.
=99-	=99-	=99-	=99-	=99-	=99-	=99-	=99-
2FF/	-de	1F	.	2c\	cor-	1A	-de
*	*ij	*	*	*	*	*	*
1F	et	.	.	2A/	.	.	.
*	*	*Xlig	*	*	*	*	*ij
.	.	1C	mun-	1G	-de	2r	.
2E\	.	.	.	.	.	2c/	et
=100-	=100-	=100-	=100-	=100-	=100-	=100-	=100-
2D/	Mun-	1D	.	2F/	cor-	2A/	.
2GG/	.	.	.	2G/	.	2B-/	mun-
*	*	*lig	*	*	*	*	*
1D	-do	1F	.	2A/	.	2A/	.
.	.	.	.	2B-\	-de	2.d\	-do
=101-	=101-	=101-	=101-	=101-	=101-	=101-	=101-
*	*	*	*	*	*ij	*	*
2.F\	cor-	1D	.	1.A	et	.	.
!	!	!	!	!	!	!LO:SIC:v:t=custos f	!
.	.	.	.	.	.	4e\	.
!	!	!	!	!	!	!LO:LB:g=original	!
.	.	.	.	.	.	1f	.
4E\	.	.	.	.	.	.	.
*	*	*Xlig	*	*	*	*	*
*	*	*lig	*	*	*	*	*
1D	.	1F	-do	.	.	.	.
.	.	.	.	2B-\	.	2d\	.
=102-	=102-	=102-	=102-	=102-	=102-	=102-	=102-
2C/	.	1G,<	.	2c\	mun-	2e\	cor-
2BB-/	.	.	.	2d\	-do	1f	.
*	*	*Xlig	*	*	*	*	*
*	*	*lig	*	*	*	*	*
1C	.	1G	cor-	0c	cor-	.	.
.	.	.	.	.	.	2e\	.
=103-	=103-	=103-	=103-	=103-	=103-	=103-	=103-
!LO:SIC:v:t=custos BB-	!	!	!	!	!	!	!
1FF	-de	1A	.	.	.	1f	-de
*	*	*Xlig	*	*	*	*	*
!LO:LB:g=original	!	!	!	!	!	!	!
*	*	*lig	*	*	*	*	*
2rBB	.	1F	.	2A/	-de	1d	et
2BB-/	et	.	.	2B-\	et	.	.
=104-	=104-	=104-	=104-	=104-	=104-	=104-	=104-
!	!	!LO:SIC:v:t=custos F	!	!	!	!	!
1C	Mun-	1E	.	2G/	mun-	1c	.
.	.	.	.	1A	.	.	.
*	*	*Xlig	*	*	*	*	*
!	!	!LO:LB:g=original	!	!	!	!	!
*	*	*lig	*	*	*	*	*
1D	.	1F	.	.	.	2A/	mun-
.	.	.	.	2F/	-do	2d\	.
=105-	=105-	=105-	=105-	=105-	=105-	=105-	=105-
2.GG/	-do	1G	.	1.B-	cor-	2B-/	-do
.	.	.	.	.	.	2.d\	.
4AA/	.	.	.	.	.	.	.
*	*	*Xlig	*	*	*	*	*
2BB-/	.	0F	.	.	.	.	.
.	.	.	.	.	.	4c/	.
2C/	.	.	.	4A/	.	1c\	cor-
!	!	!	!	!LO:SIC:v:t=custos F	!	!	!
.	.	.	.	4G/	.	.	.
!	!	!	!	!LO:PB:g=original	!	!	!
=106-	=106-	=106-	=106-	=106-	=106-	=106-	=106-
1D	cor-	.	.	1F	-de	.	.
.	.	.	.	.	.	2B-/	.
2C/	.	1E	.	2G/	et	1c	-de
*	*	*	*	*	*	*	*Xij
2AA/	.	.	.	1A\	mun-	.	.
=107-	=107-	=107-	=107-	=107-	=107-	=107-	=107-
*	*	*lig	*	*	*	*	*
1BB-	.	1D	.	.	.	2rA	.
.	.	.	.	2G/	-do	1d	et
1AA	-de.	1E	.	1A	cor-	.	.
.	.	.	.	.	.	2c/	.
*	*Xij	*Xlig	*	*	*	*	*
=108-	=108-	=108-	=108-	=108-	=108-	=108-	=108-
2rC	.	0F	-de.	1D	-de	2d\	mun-
*	*	*	*	*	*Xij	*	*
2D/	et	.	.	.	.	2A/	-do
2.BB-/	mun-	.	.	2rF	.	1B-	cor-
.	.	.	.	2D/	et	.	.
4C/	.	.	.	.	.	.	.
=109-	=109-	=109-	=109-	=109-	=109-	=109-	=109-
1D	-do	[0D;l\	.	2.F/	mun-	2A/	-de
*	*	*	*	*	*	*	*ij
.	.	.	.	.	.	2.d\	et
.	.	.	.	4G/	.	.	.
2r	.	.	.	2A/	.	.	.
.	.	.	.	.	.	4c/	.
2GG/	.	.	.	1B-\	-do	4B-/	.
.	.	.	.	.	.	4A/	.
=110-	=110-	=110-	=110-	=110-	=110-	=110-	=110-
2GG/	.	0D_	.	.	.	2G/	mun-
2FF/	.	.	.	2A/	cor-	2A/	-do
1GG	cor-	.	.	1G	.	1B-	cor-
=111-	=111-	=111-	=111-	=111-	=111-	=111-	=111-
0Dl	-de.	0D]	.	0F#Xl	-de.	0Al;	-de
*	*	*	*	*	*	*	*Xij
==	==	==	==	==	==	==	==
*-	*-	*-	*-	*-	*-	*-	*-
!!!system-decoration: [s1,s2,s3,s4]
!!!RDF**kern: > = above
!!!RDF**kern: < = below
!!!RDF**kern: l = terminal long
!!!ENC: Marta Lawrence
!!!END: 2021-03-08
!!!ENC: Andrzej Kubiczek
!!!END: 2021-02-23
